X: 1
T: King George IV
R: strathspey
M: 4/4
L: 1/8
K: Ador
A,2E>A, {C}B,>A,E>A,|~A,2E>A, {C}B,>A, (3G,A,B,|A,2E>A, {C}B,>A,E>A,|
[1 B,>DG>E (3DEC (3B,A,G,:|2 B,>DG>E D<B,G,2||
K:Amix
|:c>eA>B c<Ae>A|c<eA>f (3gag (3fed|1 c<eA>e c>Ae>f|g>fg>d B<dG>B:|
[2 e<aA>g A>fe>A|E<GD>E B,>A,{C}B,>G,||


Tune 1114	Setting 21290

